X:1
T:Green Forever
T:Humours of Ballydehob
M:6/8
R:Jig
K:G
L:1/8
(3def 
|: g2f efg | d2B BAB | c2A AGA | B2G G2f | g2f efg |
d2B BAB | c2a agf |[1 g3 def :|[2 g3 g2a |:
b2g gfg | b2g gfg | a2f fef | a2f d2a |b2g gfg |
b2g gfg | e2a agf |[1 g3 g2a :|[2 g3 ||
